<?xml version="1.0" encoding="UTF-8"?>
<map version="1.10" tiledversion="1.12.2" orientation="orthogonal" renderorder="right-down" width="40" height="23" tilewidth="16" tileheight="16" infinite="0" nextlayerid="4" nextobjectid="63">
 <tileset firstgid="1" source="Pixel Adventure.tsx"/>
 <layer id="1" name="Background" width="40" height="23">
  <properties>
   <property name="BackgroundColor" value="Gray"/>
  </properties>
  <data encoding="csv">
24,24,24,24,24,24,24,24,24,24,24,24,24,24,24,24,24,24,24,24,24,24,24,24,24,24,24,24,24,24,24,24,24,24,24,24,24,24,24,24,
24,24,24,24,24,24,24,24,24,24,24,24,24,24,24,24,24,24,24,24,24,24,24,24,24,24,24,24,24,24,24,24,24,24,24,24,24,24,24,24,
24,24,24,24,24,24,24,24,24,24,24,24,24,24,24,24,24,24,24,24,24,24,24,24,24,24,24,24,24,24,24,24,24,24,24,24,24,24,24,24,
24,24,24,24,92,134,134,134,134,134,134,134,134,134,134,134,134,134,134,134,134,134,134,134,134,134,134,134,134,134,134,134,134,134,134,93,24,24,24,24,
24,24,24,24,113,0,0,0,0,0,0,0,0,0,0,0,0,0,0,0,0,0,0,0,0,0,0,0,0,0,0,0,0,0,0,111,24,24,24,24,
24,24,24,24,113,0,0,0,0,0,0,0,0,0,0,0,0,0,0,0,0,0,0,0,0,0,0,0,0,0,0,0,0,0,0,111,24,24,24,24,
24,24,24,24,113,0,0,0,0,0,0,0,0,0,0,0,0,0,0,0,0,0,0,0,0,0,0,0,0,0,0,0,0,0,0,111,24,24,24,24,
24,24,24,24,113,40,41,42,0,0,0,0,0,0,0,0,0,0,0,0,0,0,0,0,0,0,0,0,0,0,0,0,0,0,0,111,24,24,24,24,
24,24,24,24,113,0,0,0,0,0,0,0,0,0,0,0,0,0,0,0,0,0,0,0,0,0,0,0,0,0,0,0,0,0,0,111,24,24,24,24,
24,24,24,24,113,0,0,0,0,0,0,0,0,0,0,0,0,0,0,0,0,0,0,0,0,0,0,0,0,0,0,0,0,0,0,111,24,24,24,24,
24,24,24,24,113,40,41,42,0,0,0,0,13,14,14,15,0,0,0,0,0,0,0,0,0,0,0,0,40,41,41,42,0,0,0,111,24,24,24,24,
24,24,24,24,113,0,0,0,0,0,0,0,0,0,0,0,0,0,0,0,0,0,0,0,0,0,0,0,0,0,0,0,0,0,0,111,24,24,24,24,
24,24,24,24,113,0,0,0,0,0,0,0,0,0,0,0,0,0,0,0,0,13,14,14,15,0,0,0,0,0,0,0,0,0,0,111,24,24,24,24,
24,24,24,24,113,40,41,42,0,0,0,0,0,0,0,0,0,0,0,0,0,0,0,0,0,0,0,0,40,41,41,42,0,0,0,111,24,24,24,24,
24,24,24,24,113,0,0,0,0,0,0,0,0,0,0,0,0,0,0,0,0,0,0,0,0,0,0,0,0,0,0,0,0,0,0,111,24,24,24,24,
24,24,24,24,113,35,0,0,0,0,0,0,0,0,0,0,0,0,0,0,0,0,0,0,0,0,0,0,0,0,0,0,0,0,0,111,24,24,24,24,
24,24,24,24,113,7,8,8,8,8,9,0,0,0,0,0,0,0,0,0,0,0,0,0,0,0,7,8,9,7,8,9,0,0,0,111,24,24,24,24,
24,24,24,24,113,29,30,30,30,30,31,0,0,0,0,0,0,0,0,0,0,0,0,0,0,0,29,30,31,29,30,31,0,0,0,111,24,24,24,24,
24,24,24,24,113,51,52,52,52,52,53,0,0,0,0,0,0,0,0,0,0,0,0,0,0,0,51,52,53,51,52,53,0,0,0,111,24,24,24,24,
24,24,24,24,114,90,90,90,90,90,90,90,90,90,90,90,90,90,90,90,90,90,90,90,90,90,90,90,90,90,90,90,90,90,90,115,24,24,24,24,
24,24,24,24,24,24,24,24,24,24,24,24,24,24,24,24,24,24,24,24,24,24,24,24,24,24,24,24,24,24,24,24,24,24,24,24,24,24,24,24,
24,24,24,24,24,24,24,24,24,24,24,24,24,24,24,24,24,24,24,24,24,24,24,24,24,24,24,24,24,24,24,24,24,24,24,24,24,24,24,24,
24,24,24,24,24,24,24,24,24,24,24,24,24,24,24,24,24,24,24,24,24,24,24,24,24,24,24,24,24,24,24,24,24,24,24,24,24,24,24,24
</data>
 </layer>
 <objectgroup id="2" name="Spawnpoints">
  <object id="17" name="Player" type="Player" x="144" y="224" width="32" height="32"/>
  <object id="50" name="Apple" type="Fruit" x="96" y="80" width="32" height="32"/>
  <object id="52" name="Bananas" type="Fruit" x="96" y="128" width="32" height="32"/>
  <object id="53" name="Melon" type="Fruit" x="96" y="176" width="32" height="32"/>
  <object id="55" name="Cherries" type="Fruit" x="192" y="128" width="32" height="32"/>
  <object id="56" name="Cherries" type="Fruit" x="224" y="128" width="32" height="32"/>
  <object id="57" name="Cherries" type="Fruit" x="208" y="96" width="32" height="32"/>
  <object id="58" name="Kiwi" type="Fruit" x="336" y="160" width="32" height="32"/>
  <object id="59" name="Kiwi" type="Fruit" x="368" y="160" width="32" height="32"/>
  <object id="60" name="Kiwi" type="Fruit" x="352" y="128" width="32" height="32"/>
  <object id="61" name="Orange" type="Fruit" x="464" y="128" width="32" height="32"/>
  <object id="62" name="Pineapple" type="Fruit" x="464" y="176" width="32" height="32"/>
 </objectgroup>
 <objectgroup id="3" name="Collisions">
  <object id="21" x="64" y="48" width="16" height="272"/>
  <object id="22" x="80" y="48" width="496" height="16"/>
  <object id="23" x="560" y="64" width="16" height="256"/>
  <object id="24" x="80" y="304" width="480" height="16"/>
  <object id="29" x="80" y="240" width="16" height="16"/>
  <object id="30" x="80" y="256" width="96" height="48"/>
  <object id="34" x="192" y="160" width="64" height="16"/>
  <object id="35" x="336" y="192" width="64" height="16"/>
  <object id="36" x="416" y="256" width="96" height="48"/>
  <object id="40" type="Platform" x="448" y="208" width="64" height="16"/>
  <object id="46" type="Platform" x="448" y="160" width="64" height="16"/>
  <object id="47" type="Platform" x="80" y="208" width="48" height="16"/>
  <object id="48" type="Platform" x="80" y="160" width="48" height="16"/>
  <object id="49" type="Platform" x="80" y="112" width="48" height="16"/>
 </objectgroup>
</map>
